svgs/thin/stretcher.svg

<svg xmlns="http://www.w3.org/2000/svg" viewBox="0 0 640 512"><!--! Font Awesome Pro 6.0.0-alpha3 by @fontawesome - https://fontawesome.com License - https://fontawesome.com/license (Commercial License) --><path d="M496 416c-12.12 0-23.06 4.641-31.51 12.05l-82.07-54.71l70.02-46.68c3.672-2.438 4.672-7.406 2.219-11.09c-2.469-3.688-7.484-4.688-11.09-2.219L368 363.7L292.4 313.3C288.8 310.9 283.8 311.9 281.3 315.6s-1.453 8.656 2.219 11.09l70.02 46.68l-82.07 54.71C263.1 420.6 252.1 416 240 416C213.5 416 192 437.5 192 464S213.5 512 240 512S288 490.5 288 464c0-8.572-2.432-16.5-6.369-23.47L368 382.9l86.37 57.58C450.4 447.5 448 455.4 448 464c0 26.51 21.49 48 48 48s48-21.49 48-48S522.5 416 496 416zM240 496c-17.64 0-32-14.36-32-32s14.36-32 32-32s32 14.36 32 32S257.6 496 240 496zM496 496c-17.64 0-32-14.36-32-32s14.36-32 32-32s32 14.36 32 32S513.6 496 496 496zM608 191.1H191.1L79.87 74.74C73.55 67.62 64.78 64 55.96 64C48.37 64 40.75 66.68 34.62 72.12L10.74 93.37c-13.25 11.75-14.38 31.88-2.625 45.13L129.7 266.5C141.9 280.1 159.4 288 177.6 288H608c17.62 0 32-14.38 32-32v-32C640 206.4 625.6 191.1 608 191.1zM624 255.1C624 264.8 616.8 272 608 272H177.6c-13.7 0-26.8-5.883-36.28-16.52L20.09 127.9c-5.859-6.607-5.289-16.72 1.293-22.56l23.85-21.23C48.2 81.45 52.01 80 55.96 80c4.635 0 8.873 1.902 12.34 5.797l116.9 122.2H608c8.822 0 16 7.18 16 16V255.1z"/></svg>

<svg xmlns="http://www.w3.org/2000/svg" viewBox="0 0 640 512"><!-- Font Awesome Pro 6.0.0-alpha2 by @fontawesome - https://fontawesome.com License - https://fontawesome.com/license (Commercial License) --><path d="M496 416C483.881 416 472.941 420.641 464.494 428.049L382.422 373.334L452.437 326.656C456.109 324.219 457.109 319.25 454.656 315.562C452.187 311.875 447.172 310.875 443.562 313.344L368 363.719L292.437 313.344C288.781 310.906 283.797 311.875 281.344 315.562S279.891 324.219 283.562 326.656L353.578 373.334L271.506 428.049C263.059 420.641 252.119 416 240 416C213.49 416 192 437.49 192 464S213.49 512 240 512S288 490.51 288 464C288 455.428 285.568 447.496 281.631 440.529L368 382.947L454.369 440.529C450.432 447.496 448 455.428 448 464C448 490.51 469.49 512 496 512S544 490.51 544 464S522.51 416 496 416ZM240 496C222.355 496 208 481.645 208 464S222.355 432 240 432S272 446.355 272 464S257.644 496 240 496ZM496 496C478.355 496 464 481.645 464 464S478.355 432 496 432S528 446.355 528 464S513.644 496 496 496ZM608 191.996H191.992L79.867 74.74C73.553 67.619 64.781 64 55.963 64C48.371 64 40.746 66.68 34.615 72.115L10.74 93.365C-2.51 105.117 -3.635 125.242 8.115 138.492L129.742 266.498C141.867 280.125 159.367 288 177.617 288H608C625.625 288 640 273.623 640 255.998V223.996C640 206.371 625.625 191.996 608 191.996ZM624 255.998C624 264.82 616.822 272 608 272H177.617C163.914 272 150.82 266.117 141.342 255.477L20.086 127.875C14.227 121.268 14.797 111.154 21.379 105.316L45.23 84.086C48.203 81.451 52.014 80 55.961 80C60.596 80 64.834 81.902 68.303 85.797L180.428 203.053L185.154 207.996H608C616.822 207.996 624 215.174 624 223.996V255.998Z"/></svg>
